!!!COM:	Japart, Jean
!!!CDT:	~1450//-~1507//
!!!OTL:	Amours amours amours
!!!AGN:	Song; Chanson
!!!SCT:	Jap3001
!!!SCA:	Jap3001
!!!voices:	4
**kern	**kern	**kern	**kern
*staff4	*staff3	*staff2	*staff1
*Ivox	*Ivox	*Ivox	*Ivox
*I"Bassus	*I"Tenor	*I"Altus	*I"Discantus
*I'B	*I'T	*I'A	*I'D
*>[A,B,B,C]	*>[A,B,B,C]	*>[A,B,B,C]	*>[A,B,B,C]
*>norep[A,B,B,C]	*>norep[A,B,B,C]	*>norep[A,B,B,C]	*>norep[A,B,B,C]
*>A	*>A	*>A	*>A
*clefF4	*clefGv2	*clefGv2	*clefG2
*k[b-]	*k[b-]	*k[b-]	*k[b-]
*M2/1	*M2/1	*M2/1	*M2/1
*met(C|)	*met(C|)	*met(C|)	*met(C|)
!!section: Amours, amours, amours
!!!OMD: Amours, amours, amours
=1-	=1-	=1-	=1-
1C	0r	0r	0r
[1F	.	.	.
=2	=2	=2	=2
1F]	1r	0r	0r
1G	1C	.	.
=3	=3	=3	=3
1.A	0F	0r	0r
4G	.	.	.
4F	.	.	.
=4	=4	=4	=4
2.E	1G	0r	0r
4D	.	.	.
2F	[1A	.	.
[2c	.	.	.
=5	=5	=5	=5
2c]	2A]	0r	0r
4B-	4G	.	.
4A	4F	.	.
1B-	1G	.	.
=6	=6	=6	=6
2.A	2F	0r	0r
.	2.c	.	.
4G	.	.	.
4E	.	.	.
4F	4A	.	.
[2G	[2B-	.	.
=7	=7	=7	=7
4G]	4B-]	1r	0r
4F	4A	.	.
4E	4G	.	.
4D	4F	.	.
1E	1G	1C	.
=8	=8	=8	=8
0F	0F	2.F	1c
.	.	4G	.
.	.	[1A	[1f
=9	=9	=9	=9
0r	0r	2A]	1f]
.	.	1B-	.
.	.	.	1g
.	.	4A	.
.	.	4G	.
=10	=10	=10	=10
0r	1r	2F	0a
.	.	2.c	.
.	1F	.	.
.	.	4d	.
.	.	[2f	.
=11	=11	=11	=11
0r	1c	2f]	1g
.	.	2e	.
.	1F	2.f	2f
.	.	.	[2cc
.	.	4e	.
=12	=12	=12	=12
0r	0r	2c	4cc]
.	.	.	8b-L
.	.	.	8aJ
.	.	2.d	2.b-
.	.	4c	4a
.	.	4B-	4g
.	.	4A	4f
=13	=13	=13	=13
1r	1r	2.B-	2g
.	.	.	1f
.	.	4A	.
1C	1c	1G	.
.	.	.	2e
=14	=14	=14	=14
0D	2A	1.F	0f
.	2A	.	.
.	2F	.	.
.	2F	4G	.
.	.	4A	.
=15	=15	=15	=15
[0BB-	1D	1B-	1r
.	1D	2F	1f
.	.	[2B-	.
=16	=16	=16	=16
0BB-]	1r	4B-]	1.f
.	.	4c	.
.	.	2.d	.
.	1D	.	.
.	.	4c	.
.	.	4B-	4e
.	.	4A	4d
=17	=17	=17	=17
1C	1E	1G	1.c
1AA	1F	2r	.
.	.	2c	2A
=18	=18	=18	=18
0GG	0G	2B-	2.B-
.	.	2d	.
.	.	.	4c
.	.	2G	2d
.	.	[2g	[2e
=19	=19	=19	=19
[0C	1E	2g]	2e]
.	.	2.e	1c
.	1C	.	.
.	.	4d	.
.	.	[2c	[2g
=20	=20	=20	=20
2C]	0D	4c]	2g]
.	.	4B-	.
2r	.	2A	1f
1r	.	1B-	.
.	.	.	4e
.	.	.	4d
=21	=21	=21	=21
1r	0C	2.c	0e
.	.	4B-	.
1C	.	2G	.
.	.	[2A	.
=22	=22	=22	=22
1F	1r	2A]	0r
.	.	4G	.
.	.	4F	.
1G	1C	1E	.
=23	=23	=23	=23
1.A	0F	2F	0r
.	.	1c	.
4G	.	4B-	.
4F	.	4A	.
=24	=24	=24	=24
2.E	1G	1B-	1r
4D	.	.	.
1F	[1A	2A	1c
.	.	[2c	.
=25	=25	=25	=25
1D	2A]	2c]	1f
.	4G	2B-	.
.	4F	.	.
1C	2.E	1c	1g
.	4D	.	.
=26	=26	=26	=26
2r	2F	1F	1.a
2.F	2c	.	.
.	2c	1r	.
4E	.	.	.
2D	2d	.	4g
.	.	.	4f
=27	=27	=27	=27
1C	1e	1c	1g
2F	1f	2A	2f
[2A	.	2F	[2cc
=28	=28	=28	=28
2A]	2c	2f	4cc]
.	.	.	4a
1G	2d	2g	2.b-
.	2B-	2d	.
.	.	.	4g
[2F	2c	[2f	[2a
=29	=29	=29	=29
2F]	2A	4f]	4a]
.	.	4e	4g
2BB-	2B-	2d	1f
1C	1G	1c	.
.	.	.	2e
=30	=30	=30	=30
0FFl	0Fl	0cl	0fl
!!xLO:LB:i:g=z
=31!|:	=31!|:	=31!|:	=31!|:
*>B	*>B	*>B	*>B
!!section: [untexted]
!!!OMD: [untexted]
1.FF	0r	1F	0r
.	.	2A	.
2GG	.	2B-	.
=32	=32	=32	=32
1AA	1r	1c	0r
[1BB-	[1F	[1d	.
=33	=33	=33	=33
1BB-]	2F]	2d]	0r
.	2G	4c	.
.	.	4B-	.
1AA	1A	2c	.
.	.	2F	.
=34	=34	=34	=34
0GG	0B-	2G	0r
.	.	1F	.
.	.	2E	.
=35	=35	=35	=35
1FF	1A	2F	1.f
.	.	1c	.
1r	1F	.	.
.	.	2B-	2g
=36	=36	=36	=36
1F	2r	1A	1a
.	2c	.	.
2G	2B-	1G	[1b-
[2B-	[2d	.	.
=37	=37	=37	=37
4B-]	4d]	1G	1b-]
4A	4c	.	.
2G	2B-	.	.
4A	4c	2F	[1a
4G	4B-	.	.
4F	4A	[2A	.
4E	4G	.	.
=38	=38	=38	=38
1D	1F	2A]	2a]
.	.	2B-	4g
.	.	.	4f
1C	1G	[1cl	2.e
.	.	.	4d
=39	=39	=39	=39
0FFl	0Fl	0c]	0fl
!!xLO:LB:i:g=z
=40:|!	=40:|!	=40:|!	=40:|!
*>C	*>C	*>C	*>C
!!section: [untexted]
!!!OMD: [untexted]
1FF	0r	1c	1r
2FF	.	2A	1cc
2FF	.	2A	.
=41	=41	=41	=41
2FF	1c	2F	2a
2FF	.	2F	2a
[1FF	2A	1D	2f
.	2A	.	2f
=42	=42	=42	=42
2FF]	2F	2r	1d
2r	2F	2.f	.
1F	[1D	.	2d
.	.	4g	.
.	.	[2a	[2f
=43	=43	=43	=43
1.F	0D]	4a]	4f]
.	.	4g	4g
.	.	2.f	2.a
.	.	4d	4g
4E	.	2f	2f
4D	.	.	.
=44	=44	=44	=44
1C	1E	2e	4g
.	.	.	4f
.	.	1c	4e
.	.	.	4d
2AA	1F	.	2c
[2BB-	.	[2B-	[2d
=45	=45	=45	=45
4BB-]	1G	2B-]	4d]
4GG	.	.	4B-
1C	.	2.G	2.e-i
.	2E	.	.
.	.	4A	4c
[2BB-	[2F	[2B-	[2d
=46	=46	=46	=46
2BB-]	2F]	4B-]	2d]
.	.	4A	.
2AA	2C	2F	1c
1GG	1D	1G	.
.	.	.	2Bni
=47	=47	=47	=47
1r	[0C	1.E	0c
1C	.	.	.
.	.	[2A	.
=48	=48	=48	=48
1F	2C]	2A]	0r
.	2r	4G	.
.	.	4F	.
1G	1C	1E	.
=49	=49	=49	=49
1.A	0F	2F	0r
.	.	1c	.
4G	.	4B-	.
4F	.	4A	.
=50	=50	=50	=50
2.E	1G	1B-	1r
4D	.	.	.
1F	[1A	2A	1c
.	.	[2c	.
=51	=51	=51	=51
1D	2A]	2c]	1f
.	4G	2B-	.
.	4F	.	.
1C	2.E	1c	1g
.	4D	.	.
=52	=52	=52	=52
2r	2F	1F	1.a
2.F	1c	.	.
.	.	1r	.
4E	.	.	.
2D	2d	.	4g
.	.	.	4f
=53	=53	=53	=53
1C	1e	1c	1g
2F	1f	2A	2f
[2A	.	2F	[2cc
=54	=54	=54	=54
2A]	2c	2f	4cc]
.	.	.	4a
1G	2d	2g	2.b-
.	2B-	2d	.
.	.	.	4g
[2F	2c	[2f	[2a
=55	=55	=55	=55
2F]	2A	4f]	2a]
.	.	4e	.
2BB-	2B-	2d	1f
1C	1G	1c	.
.	.	.	2e
=56	=56	=56	=56
0FFl	0Fl	0cl	0fl
==	==	==	==
*-	*-	*-	*-
!!!RDF**kern: l=long note in original notation
!!!RDF**kern: i=editorial accidental
!!!ENC:	Chris Gage 09-04-2013
!!!END:	2013/10/12/
!!!EED:	Jesse Rodin
!!!EEV:	2013/12/19/
!!!ONB:	Translated from MusicXML and edited on 2013/12/19/ by Craig Sapp
!!muse2ps: C^@{COM}^i2I150v85,85,85,140Q4
